svgs/duotone/boot.svg

<svg xmlns="http://www.w3.org/2000/svg" viewBox="0 0 512 512"><!--! Font Awesome Pro 6.3.0 by @fontawesome - https://fontawesome.com License - https://fontawesome.com/license (Commercial License) Copyright 2023 Fonticons, Inc. --><defs><style>.fa-secondary{opacity:.4}</style></defs><path class="fa-primary" d="M0 448v32l32 32h64l32-32l32 32h64l32-32l32 32h64l32-32l32 32h64l32-32v-32H0zM352 80v-64C352 7.25 344.8 0 336 0h-320C7.25 0 0 7.25 0 16V96h336C344.8 96 352 88.75 352 80z"/><path class="fa-secondary" d="M512 378.1V448H0V96h320v64h-48C263.2 160 256 167.2 256 176S263.2 192 271.1 192H320v32h-48C263.2 224 256 231.2 256 240S263.2 256 271.1 256H320l119.2 29.75C481.1 296.5 512 334.8 512 378.1z"/></svg>

<svg xmlns="http://www.w3.org/2000/svg" viewBox="0 0 512 512"><!-- Font Awesome Pro 6.0.0-alpha2 by @fontawesome - https://fontawesome.com License - https://fontawesome.com/license (Commercial License) --><defs><style>.fa-secondary{opacity:.4}</style></defs><path d="M512 379V448H0V96H320V160H272C263.2 160 256 167.2 256 176V176C256 184.8 263.2 192 272 192H320V224H272C263.2 224 256 231.2 256 240V240C256 248.8 263.2 256 272 256H320L439.25 285.75C481.999 296.5 512 334.875 512 379Z" class="fa-secondary"/><path d="M0 448V480L32 512H96L128 480L160 512H224L256 480L288 512H352L384 480L416 512H480L512 480V448H0ZM352 80V16C352 7.25 344.75 0 336 0H16C7.25 0 0 7.25 0 16V96H336C344.75 96 352 88.75 352 80Z" class="fa-primary"/></svg>
